src/assets/images/types/flying.svg

<svg width="512" height="512" fill="none" xmlns="http://www.w3.org/2000/svg"><path fill-rule="evenodd" clip-rule="evenodd" d="M178.712 477.733c75.003 0 139.215-41.685 165.724-100.777.324-.721-106.429 27.743-103.025 17.681 1.52-4.493 66.96-28.399 114.637-56.283 27.403-16.027 40.022-49.954 40.022-49.954s-46.167 22.415-69.506 28.101c-47.032 11.46-88.433 10.226-88.433 9.032 0-2.582 68.745-15.644 164.293-73.869 44.943-27.387 57.15-74.561 57.15-74.561s-49.411 29.432-79.281 39.149c-70.836 23.043-135.478 29.987-135.478 26.869 0-6.676 56.887-22.319 117.201-51.544 31.36-15.195 58.519-35.047 89.992-57.124C503.506 98.332 511.999 34 511.999 34s-50.792 32.76-75.579 43.64c-102.279 44.891-192.591 68.439-257.708 73.537C80.416 158.873 0 227.456 0 316.501c0 89.046 80.012 161.232 178.712 161.232Z" fill="#fff"/></svg>

<svg width="512" height="512" viewBox="0 0 512 512" fill="none" xmlns="http://www.w3.org/2000/svg">
<path fill-rule="evenodd" clip-rule="evenodd" d="M178.712 477.733C253.715 477.733 317.927 436.048 344.436 376.956C344.76 376.235 238.007 404.699 241.411 394.637C242.931 390.144 308.371 366.238 356.048 338.354C383.451 322.327 396.07 288.4 396.07 288.4C396.07 288.4 349.903 310.815 326.564 316.501C279.532 327.961 238.131 326.727 238.131 325.533C238.131 322.951 306.876 309.889 402.424 251.664C447.367 224.277 459.574 177.103 459.574 177.103C459.574 177.103 410.163 206.535 380.293 216.252C309.457 239.295 244.815 246.239 244.815 243.121C244.815 236.445 301.702 220.802 362.016 191.577C393.376 176.382 420.535 156.53 452.008 134.453C503.506 98.332 511.999 34 511.999 34C511.999 34 461.207 66.7601 436.42 77.6394C334.141 122.531 243.829 146.079 178.712 151.177C80.416 158.873 0 227.456 0 316.501C0 405.547 80.0119 477.733 178.712 477.733Z" fill="white"/>
</svg>
